X: 43033
T: Wily Old Bachelor, The
R: hornpipe
M: 4/4
K: Gmajor
DC|B,DGA BGDB,|CEAB cAFD|B,DGA BdcB|(3ABA (3GFE (3DED (3CB,A,|
B,DGA BGDB,|CEAB cAFD|B,DGB ADFA|(3GAG FA G2:|
|:ga|bgeg dB (3BBB|dgeg dB (3BBB|bgeg dgbg|a2 a^g a2 =ga|
bgeg dB (3BBB|c2 cB cdef|gdBG FAcA|(3GAG FA G2:|

